**kern	**kern	**kern	**kern
*staff4	*staff3	*staff2	*staff1
=1-	=1-	=1-	=1-
*clefF4	*clefG2	*clefF4	*clefG2
*k[]	*k[]	*k[]	*k[]
*C:	*C:	*C:	*C:
*M4/4	*M4/4	*M4/4	*M4/4
1r	1r	1r	8G/L
.	.	.	8e/
.	.	.	8c/
.	.	.	8e/J
.	.	.	8G/L
.	.	.	8e/
.	.	.	8c/
.	.	.	8e/J
=2	=2	=2	=2
[1CCC [1CC	1r	2r	8G/L
.	.	.	8e/
.	.	.	8c/
.	.	.	8e/J
.	.	8G\L	4r
.	.	8e\	.
.	.	8c\	[4ff\
.	.	8e\J	.
=3	=3	=3	=3
1CCC] 1CC]	1r	8F\L	8ff\L]
.	.	8e\	[8ee\J
.	.	8c\	16ee\LL]
.	.	.	16ee-\
.	.	8e\J	16dd\
.	.	.	16dd-\JJ
.	.	8F\L	16cc\LK
.	.	.	8b\
.	.	8d\	.
.	.	.	16ddn\Jk
.	.	8B\	16b\LK
.	.	.	8b-\
.	.	8d\J	.
.	.	.	16dd\Jk
=4	=4	=4	=4
!!linebreak:original
1r	1r	8E\L	[4a/
.	.	8c\	.
.	.	8A\	16a\LL]
.	.	.	32b\L
.	.	.	32cc\JJJ
.	.	8c\J	32dd\LLL
.	.	.	32ee\
.	.	.	32ff\
.	.	.	32gg\JJJ
.	.	8r	4.aa-\
.	.	8D\L	.
.	.	8f\	.
.	.	8e\J	8gg\
*	*	*clefG2	*
=5	=5	=5	=5
2.r	1r	8d/L	4ff\
.	.	8b-/	.
.	.	8g/	16ee\LL
.	.	.	16gg\
.	.	8b-/J	16eee-\
.	.	.	16ddd\JJ
.	.	8e/L	8ddd-\
.	.	8g/J	4ccc\
4FFF/ 4FF/	.	4b-\	.
.	.	.	8aa-\
=6	=6	=6	=6
2FFF/ 2FF/	1r	8b-\L	[2ff\
.	.	8dd-\	.
.	.	8f\	.
.	.	8b-\J	.
2GGG/ 2GG/	.	8e\L	8ff\]
.	.	8dd-\	24ee\LL
.	.	.	24ff\
.	.	.	24gg\JJ
.	.	8b-\	8.ff\L
.	.	8dd-\J	.
.	.	.	16ee\Jk
=7	=7	=7	=7
!!pagebreak:original
1AAA 1AA	1r	8d\L	2ee\
.	.	8b-\	.
.	.	8dd-\	.
.	.	8cc\J	.
.	.	8b-\L	4dd\
.	.	8cc\	.
.	.	8a\	4dd-\
.	.	8b-\J	.
*	*	*clefF4	*
=8	=8	=8	=8
1r	2.g/	8r	2cc\
.	.	8BBBn/L	.
.	.	8FF/	.
.	.	8C/J	.
.	.	8BB/	4b\
.	.	4AA/	.
.	8f#/L	.	8a#/L
.	8a/J	[8GG/	8b#/J
=9	=9	=9	=9
1r	8c#/L	8GG/]	8cc#\L
.	8a/	4.FF#/	8dd#\J
.	8f#/	.	[4ee#\
.	8a/J	.	.
.	8d/L	2FF#/	8ee#\L]
.	8b-/	.	8een\J
.	8a/	.	[4gg\
.	8g/J	.	.
=10	=10	=10	=10
1r	8f/L	2.FF/	4gg\]
.	8a-/	.	.
.	8c/	.	2ff\
.	8a-/J	.	.
.	8cc\L	.	.
.	8dd\	.	.
.	8ee\	4EE/	4gg\
.	8ff\J	.	.
=11	=11	=11	=11
!!linebreak:original
1r	8ff#\L	4.DD/	8gg#\L
.	8gg\J	.	8aa\J
.	2gg#\	.	2aa#\
.	.	8BB-/	.
.	.	8GG/L	.
.	.	8BB-/	.
.	[4ggn\	8EE/	[4bb\
.	.	8C/J	.
=12	=12	=12	=12
1r	4gg\]	8AA/L	4bb\]
.	.	8C/	.
.	2ff\	8FF/	2ccc\
.	.	8D-/J	.
.	.	8AA-/L	.
.	.	8D-/J	.
.	4r	4r	8f/L
.	.	.	8a-/J
=13	=13	=13	=13
1r	1r	1r	8dd-\L
.	.	.	8ff\
.	.	.	8aa-\
.	.	.	8ddd-\J
.	.	.	8ee-\L
.	.	.	8gg\
.	.	.	8bb-\
.	.	.	8eee-\J
=14	=14	=14	=14
1CCC [1CC	1r	2r	8ff\L
.	.	.	8aa\
.	.	.	8ccc\
.	.	.	8fff\J
.	.	8r	8ee-\L
.	.	8DD/L	8gg\
.	.	8EE-/	8ccc\
.	.	8FF/J	8fff\J
=15	=15	=15	=15
!!linebreak:original
1CC]	1r	4.GG-/	8ff\L
.	.	.	8aa\
.	.	.	8ccc\
.	.	8FF/	8fff\J
.	.	8AA-/L	8ee-\L
.	.	8FF/	8gg\
.	.	8AA-/	8ccc\
.	.	8C/J	8fff\J
=16	=16	=16	=16
1r	1r	4.F\	8dd\L
.	.	.	8ff\
.	.	.	8bb-\
.	.	4G-\	8fff\J
.	.	.	8eee\L
.	.	4A-\	8ccc#\
.	.	.	8gg#\
.	.	[8B-\	8ee\J
=17	=17	=17	=17
1r	1r	8B-\]	8dd\L
.	.	4c\	8ff\
.	.	.	8bb-\
.	.	8d\	8fff\J
.	.	4e-\	8eee\L
.	.	.	8ccc#\
.	.	4f\	8gg#\
.	.	.	8ee\J
=18	=18	=18	=18
1r	2r	2g\	8r
.	.	.	8ee\L
.	.	.	8aa-\
.	.	.	8gg\J
.	4f/	2GGG/ 2GG/	8gg-\
.	.	.	4ee-\
.	4e/	.	.
.	.	.	[8dd-\
=19	=19	=19	=19
!!pagebreak:original
1r	8e-/L	[1CCC [1CC	4dd-\]
.	8g/	.	.
.	8cc/	.	2.cc\
.	8g/J	.	.
.	8en/L	.	.
.	8g/	.	.
.	8cc/	.	.
.	8g/J	.	.
=20	=20	=20	=20
1r	1r	1CCC_ 1CC_	8r
.	.	.	8f/L
.	.	.	8a/
.	.	.	8b/J
.	.	.	8cc\L
.	.	.	8dd-\
.	.	.	8ee-\
.	.	.	8aa\J
=21	=21	=21	=21
1r	1r	1CCC] 1CC]	1ee 1gg
==	==	==	==
*-	*-	*-	*-
